img/check-hover.svg

<svg width="27" height="23" viewBox="0 0 27 23" fill="none" xmlns="http://www.w3.org/2000/svg">
<path d="M6.68228 8.7951L5.95918 8.03828L5.23616 8.79517L2.53374 11.6242L1.8739 12.3149L2.53374 13.0057L9.96849 20.7887L10.6916 21.5456L11.4147 20.7887L24.7233 6.85666L25.383 6.16604L24.7234 5.4753L22.022 2.6463L21.2989 1.88914L20.5757 2.6461L10.6916 12.9913L6.68228 8.7951Z" fill="#4D4D4D" stroke="white" stroke-width="2"/>
</svg>

<svg width="27" height="23" fill="none" xmlns="http://www.w3.org/2000/svg"><path d="M6.7 8.8L6 8l-.8.8-2.7 2.8-.6.7.6.7 7.5 7.8.7.7.7-.7 13.3-14 .7-.6-.7-.7L22 2.6l-.7-.7-.7.7-10 10.4-4-4.2z" fill="#4D4D4D" stroke="#fff" stroke-width="2"/></svg>
